tools/download-figma-icons/icons/outlined-large/map.svg

<svg width="64" height="64" viewBox="0 0 64 64" fill="none" xmlns="http://www.w3.org/2000/svg">
<path fill-rule="evenodd" clip-rule="evenodd" d="M3.00022 13.285C3.00022 7.61399 7.61421 2.99999 13.2852 2.99999C18.9562 2.99999 23.5702 7.61399 23.5702 13.285C23.5702 19.547 16.0222 27.3359 13.2782 29.9609C9.6932 26.56 3.00022 19.025 3.00022 13.285ZM12.2972 33.1289C12.5802 33.3759 12.9322 33.4999 13.2852 33.4999C13.6382 33.4999 13.9902 33.3759 14.2732 33.1289C14.7752 32.6889 26.5702 22.258 26.5702 13.285C26.5702 5.95899 20.6102 0 13.2852 0C5.96021 0 0.00022207 5.95899 0.00022207 13.285C0.00022207 22.258 11.7952 32.6889 12.2972 33.1289ZM21.8301 63.9999C21.6391 63.9999 21.4471 63.9639 21.2671 63.8909L0.93612 55.6499C0.370121 55.4209 0.00012207 54.8709 0.00012207 54.2599V28.5059C0.00012207 27.6779 0.672121 27.0059 1.50012 27.0059C2.32812 27.0059 3.00012 27.6779 3.00012 28.5059V53.2489L21.7711 60.8569L43.862 50.0199C44.193 49.8569 44.57 49.8229 44.925 49.9209L61 54.3859V12.842L44.654 8.30198L32.1551 14.114C31.4031 14.462 30.5111 14.138 30.1621 13.386C29.8131 12.635 30.1391 11.743 30.8901 11.393L43.891 5.34799C44.215 5.19799 44.581 5.16799 44.925 5.26299L62.901 10.256C63.551 10.437 64 11.028 64 11.702V56.3589C64 56.8279 63.781 57.2699 63.407 57.5539C63.033 57.8369 62.548 57.9319 62.099 57.8049L44.672 52.9639L22.4911 63.8469C22.2831 63.9479 22.0571 63.9999 21.8301 63.9999ZM13.2852 11.2207C12.1462 11.2207 11.2212 12.1467 11.2212 13.2847C11.2212 14.4237 12.1462 15.3497 13.2852 15.3497C14.4242 15.3497 15.3492 14.4237 15.3492 13.2847C15.3492 12.1467 14.4242 11.2207 13.2852 11.2207ZM13.2852 18.3497C10.4922 18.3497 8.22121 16.0777 8.22121 13.2847C8.22121 10.4927 10.4922 8.22068 13.2852 8.22068C16.0782 8.22068 18.3492 10.4927 18.3492 13.2847C18.3492 16.0777 16.0782 18.3497 13.2852 18.3497Z" fill="black"/>
</svg>

<svg xmlns="http://www.w3.org/2000/svg" width="64" height="64" fill="none" viewBox="0 0 64 64"><path fill="currentColor" fill-rule="evenodd" d="M3 13.285C3 7.614 7.614 3 13.285 3S23.57 7.614 23.57 13.285c0 6.262-7.548 14.05-10.292 16.676C9.693 26.56 3 19.025 3 13.285m9.297 19.844a1.5 1.5 0 0 0 1.976 0c.502-.44 12.297-10.871 12.297-19.844C26.57 5.959 20.61 0 13.285 0S0 5.959 0 13.285c0 8.973 11.795 19.404 12.297 19.844m9.533 30.87a1.5 1.5 0 0 1-.563-.108L.937 55.65A1.5 1.5 0 0 1 0 54.26V28.506a1.5 1.5 0 0 1 3 0v24.743l18.771 7.608L43.862 50.02a1.5 1.5 0 0 1 1.063-.1L61 54.387V12.842l-16.346-4.54-12.499 5.812a1.5 1.5 0 0 1-1.265-2.721l13.001-6.045c.324-.15.69-.18 1.034-.085l17.976 4.993A1.5 1.5 0 0 1 64 11.702v44.657a1.5 1.5 0 0 1-1.901 1.446l-17.427-4.841-22.18 10.883a1.5 1.5 0 0 1-.662.153m-8.545-52.778a2.066 2.066 0 0 0-2.064 2.064c0 1.139.925 2.065 2.064 2.065a2.066 2.066 0 0 0 2.064-2.065 2.066 2.066 0 0 0-2.064-2.064m0 7.129a5.07 5.07 0 0 1-5.064-5.065 5.07 5.07 0 0 1 5.064-5.064 5.07 5.07 0 0 1 5.064 5.064 5.07 5.07 0 0 1-5.064 5.065" clip-rule="evenodd"/></svg>
